X: 1
T:Up in the Air
R:jig
S:F+J
O:Ireland
M:6/8
L:1/8
K:Bm
F>BB B>AB|"tr"c3 A>FE|F>BB F>BB|c>BA B3|!
F>BB B>AB|"tr"c3 A>Bc|d>ef e>cA|F>BB B3:|!
|:d3 e>de|f>dB B>AB|d3 e>de|f>dB B3|!
d3 e>de|f>gf e>cA|"tr"f3 e>cA|F>BB B3:|!
